packages/kaspersky-hexa-ui-icons/src/iconsSVGs/24/NetflixColor.svg

<svg width="24" height="24" viewBox="0 0 24 24" fill="none" xmlns="http://www.w3.org/2000/svg">
<path d="M19.3447 3H4.65533C3.74112 3 3 3.74112 3 4.65533V19.3447C3 20.2589 3.74112 21 4.65533 21H19.3447C20.2589 21 21 20.2589 21 19.3447V4.65533C21 3.74112 20.2589 3 19.3447 3Z" fill="black"/>
<path fill-rule="evenodd" clip-rule="evenodd" d="M12.9653 5.90332L12.9606 8.60161L12.9558 11.2999L12.7338 10.6735C12.7338 10.6733 12.7335 10.6725 12.7334 10.6723L12.4465 16.6794C12.7286 17.4759 12.8797 17.9011 12.8814 17.9028C12.8836 17.905 13.0443 17.9147 13.2386 17.9244C13.8271 17.9536 14.5563 18.0161 15.1095 18.0849C15.2376 18.1008 15.3478 18.1089 15.3545 18.103C15.3611 18.097 15.3647 15.3497 15.3625 11.9977L15.3585 5.90332H14.1619H12.9653Z" fill="#B1060F"/>
<path fill-rule="evenodd" clip-rule="evenodd" d="M8.63672 5.89526V11.9959C8.63672 15.3512 8.64 18.0998 8.64402 18.1038C8.64804 18.1078 8.85583 18.0882 9.10578 18.0602C9.35573 18.0322 9.70118 17.9974 9.87344 17.9829C10.1376 17.9605 10.9264 17.9098 11.0178 17.9093C11.0443 17.9091 11.046 17.772 11.0499 15.3253L11.0539 12.7415L11.2448 13.2815C11.2743 13.365 11.2835 13.391 11.3123 13.4723L11.5991 7.46671C11.5383 7.2949 11.5702 7.38509 11.5005 7.1882C11.2662 6.52567 11.0674 5.96372 11.0586 5.93943L11.0428 5.89526H9.83976H8.63672Z" fill="#B1060F"/>
<path fill-rule="evenodd" clip-rule="evenodd" d="M8.63672 5.89526V9.3197L11.0491 15.7188C11.0493 15.5722 11.0496 15.4929 11.0499 15.3253L11.0539 12.7415L11.2448 13.2815C12.3072 16.2876 12.8779 17.8994 12.8813 17.9028C12.8835 17.905 13.0442 17.9147 13.2385 17.9243C13.827 17.9535 14.5562 18.0161 15.1094 18.0848C15.2375 18.1008 15.3477 18.1089 15.3544 18.103C15.3589 18.0989 15.3619 16.7518 15.3627 14.8514L12.9616 7.94835L12.9605 8.60159L12.9557 11.2999L12.7337 10.6735C12.5168 10.0614 12.372 9.65212 11.5005 7.1882C11.2662 6.52567 11.0673 5.96372 11.0586 5.93943L11.0428 5.89526H9.83976H8.63672H8.63672Z" fill="url(#paint0_radial_8822_2098)"/>
<path fill-rule="evenodd" clip-rule="evenodd" d="M8.63672 5.89526L11.0539 12.7446V12.7415L11.2447 13.2815C12.3071 16.2876 12.8779 17.8994 12.8812 17.9028C12.8835 17.905 13.0442 17.9147 13.2384 17.9243C13.8269 17.9535 14.5562 18.0161 15.1094 18.0848C15.2368 18.1007 15.3465 18.1088 15.3541 18.103L12.9557 11.2986V11.2999L12.7337 10.6735C12.5168 10.0614 12.3719 9.65212 11.5005 7.1882C11.2661 6.52567 11.0673 5.96372 11.0586 5.93943L11.0427 5.89526H9.83971H8.63672V5.89526Z" fill="#E50914"/>
<path fill-rule="evenodd" clip-rule="evenodd" d="M12.9653 5.90332L12.9606 8.60161L12.9558 11.2999L12.7338 10.6735C12.7338 10.6733 12.7335 10.6725 12.7334 10.6723L12.4465 16.6794C12.7286 17.4759 12.8797 17.9011 12.8814 17.9028C12.8836 17.905 13.0443 17.9147 13.2386 17.9244C13.8271 17.9536 14.5563 18.0161 15.1095 18.0849C15.2376 18.1008 15.3478 18.1089 15.3545 18.103C15.3611 18.097 15.3647 15.3497 15.3625 11.9977L15.3585 5.90332H14.1619H12.9653Z" fill="#B1060F"/>
<path fill-rule="evenodd" clip-rule="evenodd" d="M8.63672 5.89526V11.9959C8.63672 15.3512 8.64 18.0998 8.64402 18.1038C8.64804 18.1078 8.85583 18.0882 9.10578 18.0602C9.35573 18.0322 9.70118 17.9974 9.87344 17.9829C10.1376 17.9605 10.9264 17.9098 11.0178 17.9093C11.0443 17.9091 11.046 17.772 11.0499 15.3253L11.0539 12.7415L11.2448 13.2815C11.2743 13.365 11.2835 13.391 11.3123 13.4723L11.5991 7.46671C11.5383 7.2949 11.5702 7.38509 11.5005 7.1882C11.2662 6.52567 11.0674 5.96372 11.0586 5.93943L11.0428 5.89526H9.83976H8.63672Z" fill="#B1060F"/>
<path fill-rule="evenodd" clip-rule="evenodd" d="M8.63672 5.89526V9.3197L11.0491 15.7188C11.0493 15.5722 11.0496 15.4929 11.0499 15.3253L11.0539 12.7415L11.2448 13.2815C12.3072 16.2876 12.8779 17.8994 12.8813 17.9028C12.8835 17.905 13.0442 17.9147 13.2385 17.9243C13.827 17.9535 14.5562 18.0161 15.1094 18.0848C15.2375 18.1008 15.3477 18.1089 15.3544 18.103C15.3589 18.0989 15.3619 16.7518 15.3627 14.8514L12.9616 7.94835L12.9605 8.60159L12.9557 11.2999L12.7337 10.6735C12.5168 10.0614 12.372 9.65212 11.5005 7.1882C11.2662 6.52567 11.0673 5.96372 11.0586 5.93943L11.0428 5.89526H9.83976H8.63672H8.63672Z" fill="url(#paint1_radial_8822_2098)"/>
<path fill-rule="evenodd" clip-rule="evenodd" d="M8.63672 5.89526L11.0539 12.7446V12.7415L11.2447 13.2815C12.3071 16.2876 12.8779 17.8994 12.8812 17.9028C12.8835 17.905 13.0442 17.9147 13.2384 17.9243C13.8269 17.9535 14.5562 18.0161 15.1094 18.0848C15.2368 18.1007 15.3465 18.1088 15.3541 18.103L12.9557 11.2986V11.2999L12.7337 10.6735C12.5168 10.0614 12.3719 9.65212 11.5005 7.1882C11.2661 6.52567 11.0673 5.96372 11.0586 5.93943L11.0427 5.89526H9.83971L8.63672 5.89526Z" fill="#E50914"/>
<defs>
<radialGradient id="paint0_radial_8822_2098" cx="0" cy="0" r="1" gradientUnits="userSpaceOnUse" gradientTransform="translate(11.888 11.9291) rotate(-19.0982) scale(1.52448 55.8404)">
<stop/>
<stop offset="1" stop-opacity="0"/>
</radialGradient>
<radialGradient id="paint1_radial_8822_2098" cx="0" cy="0" r="1" gradientUnits="userSpaceOnUse" gradientTransform="translate(11.888 11.9291) rotate(-19.0982) scale(1.52448 55.8404)">
<stop/>
<stop offset="1" stop-opacity="0"/>
</radialGradient>
</defs>
</svg>

<svg xmlns="http://www.w3.org/2000/svg" width="24" height="24" fill="none" viewBox="0 0 24 24"><path fill="#000" d="M19.3447 3H4.6553C3.7411 3 3 3.7411 3 4.6553v14.6894C3 20.2589 3.7411 21 4.6553 21h14.6894C20.2589 21 21 20.2589 21 19.3447V4.6553C21 3.7411 20.2589 3 19.3447 3"/><path fill="#b1060f" fill-rule="evenodd" d="m12.965 5.903-.005 2.698-.005 2.698-.222-.626v-.001l-.287 6.007c.282.797.433 1.222.435 1.223.002.002.163.012.357.022.589.029 1.318.092 1.871.161.128.016.238.024.245.018s.01-2.753.008-6.105l-.004-6.094h-2.393m-4.328-.009v6.101c0 3.355.003 6.104.007 6.108s.212-.016.462-.044.595-.063.768-.077c.264-.022 1.053-.073 1.144-.074.027 0 .028-.137.032-2.584l.004-2.584.191.54.068.191.287-6.006-.099-.278c-.234-.662-.433-1.224-.442-1.249l-.016-.044z" clip-rule="evenodd"/><path fill="url(#a)" fill-rule="evenodd" d="M8.6367 5.8953v3.4244l2.4124 6.3991.0008-.3935.004-2.5838.1909.54c1.0624 3.0061 1.6331 4.6179 1.6365 4.6213.0022.0022.1629.0119.3572.0215.5885.0292 1.3177.0918 1.8709.1605.1281.016.2383.0241.245.0182.0045-.0041.0075-1.3512.0083-3.2516l-2.4011-6.903-.0011.6532-.0048 2.6983-.222-.6264a6479 6479 0 0 1-1.2332-3.4853c-.2343-.6625-.4332-1.2245-.4419-1.2488l-.0158-.0441z" clip-rule="evenodd"/><path fill="#e50914" fill-rule="evenodd" d="m8.6367 5.8953 2.4172 6.8493v-.0031l.1908.54c1.0624 3.0061 1.6332 4.6179 1.6365 4.6213.0023.0022.163.0119.3572.0215.5885.0292 1.3178.0918 1.871.1605.1274.0159.2371.024.2447.0182l-2.3984-6.8044v.0013l-.222-.6264a5588 5588 0 0 1-1.2332-3.4853l-.4419-1.2488-.0159-.0441z" clip-rule="evenodd"/><path fill="#b1060f" fill-rule="evenodd" d="m12.965 5.903-.005 2.698-.005 2.698-.222-.626v-.001l-.287 6.007c.282.797.433 1.222.435 1.223.002.002.163.012.357.022.589.029 1.318.092 1.871.161.128.016.238.024.245.018s.01-2.753.008-6.105l-.004-6.094h-2.393m-4.328-.009v6.101c0 3.355.003 6.104.007 6.108s.212-.016.462-.044.595-.063.768-.077c.264-.022 1.053-.073 1.144-.074.027 0 .028-.137.032-2.584l.004-2.584.191.54.068.191.287-6.006-.099-.278c-.234-.662-.433-1.224-.442-1.249l-.016-.044z" clip-rule="evenodd"/><path fill="url(#b)" fill-rule="evenodd" d="M8.6367 5.8953v3.4244l2.4124 6.3991.0008-.3935.004-2.5838.1909.54c1.0624 3.0061 1.6331 4.6179 1.6365 4.6213.0022.0022.1629.0119.3572.0215.5885.0292 1.3177.0918 1.8709.1605.1281.016.2383.0241.245.0182.0045-.0041.0075-1.3512.0083-3.2516l-2.4011-6.903-.0011.6532-.0048 2.6983-.222-.6264a6479 6479 0 0 1-1.2332-3.4853c-.2343-.6625-.4332-1.2245-.4419-1.2488l-.0158-.0441z" clip-rule="evenodd"/><path fill="#e50914" fill-rule="evenodd" d="m8.6367 5.8953 2.4172 6.8493v-.0031l.1908.54c1.0624 3.0061 1.6332 4.6179 1.6365 4.6213.0023.0022.163.0119.3572.0215.5885.0292 1.3178.0918 1.871.1605.1274.0159.2371.024.2447.0182l-2.3984-6.8044v.0013l-.222-.6264a5588 5588 0 0 1-1.2332-3.4853l-.4419-1.2488-.0159-.0441z" clip-rule="evenodd"/><defs><radialGradient id="a" cx="0" cy="0" r="1" gradientTransform="rotate(-19.098 41.4 -29.37)scale(1.52448 55.8404)" gradientUnits="userSpaceOnUse"><stop/><stop offset="1" stop-opacity="0"/></radialGradient><radialGradient id="b" cx="0" cy="0" r="1" gradientTransform="rotate(-19.098 41.4 -29.37)scale(1.52448 55.8404)" gradientUnits="userSpaceOnUse"><stop/><stop offset="1" stop-opacity="0"/></radialGradient></defs></svg>
